X:1
T:Title
%%score { ( 1 4 5 ) | ( 2 3 6 ) }
L:1/8
M:4/4
K:Eb
V:1 treble nm="Grand Piano"
V:4 treble 
V:5 treble 
V:2 treble 
V:3 treble 
V:6 treble 
V:1
 z4 z2[Q:1/4=100] BA | G2 G2 G2 B2 | [FA]2 [EG]2 [FA]2 cB | [DB]2 F2 F2 B2 |[M:3/4] G6 | %5
[M:1/4] BA |[M:4/4] G2 G2 [B,FA]2 [B,GB]2 |[M:9/8] [Ac]2 d- d e2- e c2 | %8
[M:4/4] [GB]2 [GB]2 [Ac]2 [Ad]2 |[M:11/16] [Ge]/-[Ge]/-[Ge]/-[Ge]/-[Ge]/-[Ge]/-[Ge]/-[Ge]-<[Ge] | %10
[M:5/16] B<cB/ |[M:4/4] A6 z2 | G6 z2 | c2 B2 A2 G2 | [B,DF]4- [B,DF]>F G>A | B6 z2 | c6 z2 | %17
 [EB]2 [DA]2 [EG]2 F2 |[M:3/4] E6 |] %19
V:2
 z4 z2 GF | E2 E2 E2 G2 | [B,,B,]4 z2 ED | z2 D2 D2 D2 |[M:3/4] [E,B,E]6 |[M:1/4][K:treble] GF | %6
[M:4/4][K:bass] E2 E2 E,2 E,2 |[M:9/8][K:treble] z2 B- B c2- c A2 | %8
[M:4/4][K:bass] [B,,B,]4 [B,,B,]4 |[M:11/16] [E,B,]/-[E,B,]/-[E,B,]/-[E,B,]/-[E,B,]-<[E,B,] z/ z | %10
[M:5/16][K:treble] G<AG/ |[M:4/4] F6[K:bass][K:treble] z2 | E6[K:bass] z2 | %13
 [A,E]2 [G,B,E]2 [F,B,D]2 [E,B,E]2 | B,,4- B,,>[K:treble]D E>F | G6[K:bass][K:treble] z2 | %16
 E6[K:bass] z2 | [B,,G,]2 [B,,F,]2 [B,,B,]2 [B,,A,B,]2 |[M:3/4] [E,G,B,]6 |] %19
V:3
 x8 | [E,B,]4 [E,B,]4 | z4 [B,,B,]4 | [B,,B,]8 |[M:3/4] x6 |[M:1/4][K:treble] x2 | %6
[M:4/4][K:bass] [E,B,]4 z4 |[M:9/8][K:treble] [A,,A,]6- [A,,A,] z z |[M:4/4][K:bass] x8 | %9
[M:11/16] x11/2 |[M:5/16][K:treble] x5/2 |[M:4/4] z z/[K:bass] B,,/ B,,>B,, z z/[K:treble] G/ A>G | %12
 z z/[K:bass] E,/ E,>E, E,2 [G,B,E]2 | x8 | x11/2[K:treble] x5/2 | %15
 z z/[K:bass] E,/ E,>E, z z/[K:treble] G/ G>F | z z/[K:bass] A,,/ A,,>A,, A,,2 [A,,A,]2 | x8 | %18
[M:3/4] x6 |] %19
V:4
 x8 | x8 | x8 | x8 |[M:3/4] x6 |[M:1/4] x2 |[M:4/4] x8 |[M:9/8] x9 |[M:4/4] x8 |[M:11/16] x11/2 | %10
[M:5/16] x5/2 |[M:4/4] z z/ B,/ B,>B, z z/ B/ c>B | z z/ B,/ B,>B, B,2 B2 | x8 | x8 | %15
 z z/ B,/ B,>B, z z/ B/ e>d | z z/ A,/ A,>A, A,2 [Ec]2 | x8 |[M:3/4] x6 |] %19
V:5
 x8 | x8 | x8 | x8 |[M:3/4] x6 |[M:1/4] x2 |[M:4/4] x8 |[M:9/8] x9 |[M:4/4] x8 |[M:11/16] x11/2 | %10
[M:5/16] x5/2 |[M:4/4] z4 B,2 z2 | x8 | x8 | x8 | z4 B,2 z2 | x8 | x8 |[M:3/4] x6 |] %19
V:6
 x8 | x8 | x8 | x8 |[M:3/4] x6 |[M:1/4][K:treble] x2 |[M:4/4][K:bass] x8 |[M:9/8][K:treble] x9 | %8
[M:4/4][K:bass] x8 |[M:11/16] x11/2 |[M:5/16][K:treble] x5/2 | %11
[M:4/4] z4[K:bass] B,,2[K:treble] z2 | x3/2[K:bass] x13/2 | x8 | x11/2[K:treble] x5/2 | %15
 z4[K:bass] E,2[K:treble] z2 | x3/2[K:bass] x13/2 | x8 |[M:3/4] x6 |] %19

